X:284
%%etbk:tnset id:467,pos:1,rep:3x,ant:
%%etbk:wsite http://www.thesession.org/tunes/display/88
%%etbk:pldat 2016-08-18T17:58,2016-08-17T15:17,2016-08-16T15:16,2016-08-15T18:28,2016-08-11T17:58,2016-08-10T15:12,2016-08-08T17:58,2016-08-06T10:42,2016-06-09T18:06,2016-06-08T15:19,2016-06-07T15:19,2016-06-04T14:19,2016-06-01T15:48,2016-05-31T15:27,2016-05-29T11:03,2016-05-19T18:11,2016-05-18T15:21,2016-05-17T15:29,2016-05-16T14:04,2016-05-14T14:57,2016-05-13T15:20,2016-05-12T18:11,2016-05-11T15:22,2016-05-09T18:16,2016-03-09T17:52,2016-03-03T19:08,2016-03-02T15:39,2016-03-01T18:16,2016-03-01T18:12,2016-02-29T18:09,2016-02-27T13:07,2016-02-26T16:34,2016-02-22T18:01,2016-02-13T15:12,2016-02-04T19:32,2016-02-03T16:50,2016-02-02T17:51,2016-02-01T18:02,2016-01-25T18:06,2016-01-20T17:13,2016-01-02T12:48,2015-11-20T15:25,2015-11-19T18:01,2015-11-18T15:20,2015-11-17T15:13,2015-11-15T13:39,2015-11-14T14:23,2015-11-13T17:36,2015-11-12T18:58,2015-11-11T17:34,2015-11-10T16:41,2015-11-09T18:58,2015-11-08T11:24,2015-11-04T17:22,2015-11-01T14:27,2015-10-17T15:10,2015-10-14T16:45,2015-09-10T15:32,2015-09-09T15:45,2015-09-08T18:37,2015-09-07T18:26,2015-09-03T17:01,2015-09-02T17:00,2015-08-30T15:14,2015-08-28T19:18,2015-08-27T17:55,2015-08-26T16:44,2015-08-19T16:57,2015-08-16T13:59,2015-08-05T17:10,2015-08-04T15:08,2015-08-02T11:57,2015-08-01T17:06,2015-07-30T18:58,2015-07-29T15:40,2015-07-27T18:17,2015-07-24T17:28,2015-07-22T15:13,2015-07-20T17:58,2015-07-19T14:39,2015-07-18T15:02,2015-07-17T10:01,2015-07-16T16:49,2015-07-15T11:40,2015-07-11T14:10,2015-07-08T09:53,2015-07-07T08:58,2015-06-21T15:40,2015-06-08T18:26,2015-05-31T14:36,2015-05-17T15:18,2015-04-22T15:12,2015-04-08T18:06,2015-02-03T16:43,2014-12-20T13:30,2014-12-15T15:05,2014-12-14T14:56,2014-12-10T15:10,2014-12-06T15:01,2014-12-04T18:58,2014-12-04T17:54,2014-12-02T16:41,2014-11-30T14:34,2014-11-26T15:43,2014-11-25T18:04,2014-11-22T14:09,2014-11-17T18:05,2014-11-15T14:56,2014-11-13T18:05,2014-11-12T18:39,2014-11-10T18:08,2014-11-09T15:14,2014-10-11T15:03,2014-10-07T15:09,2014-10-05T16:17,2014-05-20T17:07,2014-02-04T18:27,2013-12-11T19:26,2013-10-03T19:32,2013-05-21T17:44,2013-05-05T14:34
T: Rolling Waves, The
Z: Piano Box Version by Martin Fleischmann
H: Created 2013-02-19 /  Last Modified 2014-10-05
M: 6/8
L: 1/8
R: jig
K: Dmaj
|: "D"!3!FEF !1!D !3!(3D!2!D!1!D | D2!5!d !4!c!2!A!1!G | !3!FEF !1!DE/F/G | !5!AGF !4!GFE |
!3!FEF !1!D !3!(3D!2!D!1!D | D2!5!d !4!c!2!A!1!G | !3!FEF !4!GF!4!G | "A"!5!AAF !4!GFE:|
|: "D"!1!D2!5!d !4!c!2!Ad | !4!c!2!A!5!d !4!c!2!A!1!G | !1!F2!5!d !4!c!2!A!1!G | !3!FFF !4!GFE |
!1!D2!3!d !2!c!3!de | !5!fed !2!c!1!A!1!G | !3!FEF "A"!4!GF!4!G | !5!AAF !4!GFE:|


